X: 21361
T: Drunken Magg Young
%R: air, waltz
B: James Oswald "The Caledonian Pocket Companion" v.2 p.136 #1
Z: 2018 John Chambers <jc:trillian.mit.edu>
M: 3/4
L: 1/8
K: D
"_Slow"(AG) |\
TF2 ED F2 | {FG}A4 (GF) | E2 =C2 E2 | G4 (AG) |\
TF2 D2 F2 | A4 g2 | (fg)(ag)(fe) | d4 :|
|: g2 |\
f>g a2 f2 | e2 (gf)(ed) | =c3 d (ef) | (f2 g2) (Tfe) |\
f>g a2 f2 | e2 (gf)(ed) | Tc2 (BA)(dc) | d4 :|
|: A2 |\
F2 (GF)(ED) | {FG}A2 BAGF | E=c=CDEF | G4 A2 |\
F2 (GF)(ED) | d4 G2 | (FG)(AF)(GE) | D4 :|
|: g2 |\
f2 (de)(fg) | {fg}a2 (ba)(gf) | (ed)(cd)(ef) | g4 (fe) |\
(fg)(af) b2 | (ef)(ge) a2 | A2 d2 Tc2 | d4 :|
|: A2 |\
(DF) (Ad)(fa) | A3 G F2 | E3 G (FA) | G4 (B/A/G) |\
(FD)(FA) (df) | A4 g2 | (fg)(af) (ge) | d4 :|
|: (fg) |\
(ag)(fg) (a/g/)f | (gf)(ef)(ge) | =c3 d ef | g4 (fe) |\
(fa)(gf)(bg) | a2 (gf)(eg) | {fg}a2 A2 (dc) | d4 :|
|: A2 |\
(d2 c2) B2 | TA3 G F2 | G2 B2 (g/f/)e | {d}c3 B A2 |\
d2 (3(cdc) (3(BcB) | A2 d2 F2 | E2 (AG)(FE) | D4 :|
|: ag |\
(f2 e2) d2 | (Bd)(ce)(df) | (eg)(fa)(gb) | {a}Tg3 f e2 |\
(fd)(ad)(bd) | (c'/b/)a (d'/c'/)b (a/g/)f | e2 A2 (dc) | d4 :|


